!!!!SEGMENT: 074-1c-LW-001.krn
!!!COM: Chopin, Fryderyk
!!!OTL: No. 1. The Maiden's Wish. (Mädchens Wunsch.)
!!!OPS: Op. 74
!!!PTL: 17 Polish Songs
!!!PPR: Stanley Lucas, Weber & Co.
!!!PPP: London
!!!AGN: Song
!!!NIFC-rismID: BRAK
!!!NIFC-shelfmark: PL-Wbfc 6139/n
!!!OMD: Allegro ma non troppo.
!!!OMD: M.M. [quarter] = 112.
!!!system-decoration: (s1){(s2,s3)}
**kern	**kern	**dynam	**kern	**text	**dynam
*part2	*part2	*part2	*part1	*part1	*part1
*staff3	*staff2	*	*staff1	*	*
*	*I"PIANO.	*	*	*	*
*clefF4	*clefG2	*	*clefG2	*	*
*k[f#c#g#]	*k[f#c#g#]	*	*k[f#c#g#]	*	*
*A:	*A:	*	*A:	*	*
*M3/4	*M3/4	*	*M3/4	*	*
*MM112	*MM112	*	*MM112	*	*
4r	(>8eeL	mf	4r	.	.
.	8gg#J)	.	.	.	.
=1	=1	=1	=1	=1	=1
*^	*	*	*	*	*
4rB	2.AA	4ff#T>	.	2.r	.	.
4d 4E	.	(>8eeL	.	.	.	.
.	.	8b	.	.	.	.
4d 4E	.	8ee	.	.	.	.
.	.	8gg#J)	.	.	.	.
=2	=2	=2	=2	=2	=2	=2
4rB	2.AA	4ff#T>	.	2.r	.	.
4c# 4E	.	(>8eeL	.	.	.	.
.	.	8a	.	.	.	.
4c# 4E	.	8ee	.	.	.	.
.	.	8gg#J)	.	.	.	.
=3	=3	=3	=3	=3	=3	=3
4rB	2.AA	4ff#T>	.	2.r	.	.
4d 4E	.	(>8eeL	.	.	.	.
.	.	8bJ)	.	.	.	.
4d 4E	.	(<8cc#L	.	.	.	.
.	.	8eJ)	.	.	.	.
=4	=4	=4	=4	=4	=4	=4
4rB	2.AA	2a	.	2.r	.	.
4c# 4E	.	.	.	.	.	.
.	.	.	.	.	.	.
4c# 4E	.	(>8eeL	.	.	.	.
.	.	8gg#J)	.	.	.	.
!!LO:LB:g=original
=5	=5	=5	=5	=5	=5	=5
!	!	!	!	!LO:TX:a:t=P:w źródle od tego systemu pojawia się pięciolinia partii wokalnej:problem	!	!
4rB	2.AA	4ff#T>	.	2.r	.	.
4d 4E	.	(>8eeL	.	.	.	.
.	.	8b	.	.	.	.
4d 4E	.	8ee	.	.	.	.
.	.	8gg#J)	.	.	.	.
=6	=6	=6	=6	=6	=6	=6
4rB	2.AA	4ff#T>	.	2.r	.	.
4c# 4E	.	(>8eeL	.	.	.	.
.	.	8a	.	.	.	.
4c# 4E	.	8ee	.	.	.	.
.	.	8gg#J)	.	.	.	.
=7	=7	=7	=7	=7	=7	=7
4rB	2.AA	4ff#T>	.	2.r	.	.
4d 4E	.	(>8eeL	.	.	.	.
.	.	8bJ)	.	.	.	.
4d 4E	.	(<8cc#L	.	.	.	.
.	.	8eJ)	.	.	.	.
=8	=8	=8	=8	=8	=8	=8
4rB	2AA	2a	.	2.r	.	.
4c# 4E	.	.	.	.	.	.
.	.	.	.	.	.	.
4r	4r	4r	.	.	.	.
.	.	.	.	.	.	.
*v	*v	*	*	*	*	*
=9!|:	=9!|:	=9!|:	=9!|:	=9!|:	=9!|:
*	*	*	*	*^	*
*	*	*	*	*	*^	*
*	*	*	*	*	*	*^	*
!	!	!	!LO:TX:a:t=P:w źródle pod angielskim tekstem alternatywna wersja w języku niemieckim:problem	!	!	!	!	!
2.D# 2.DD#	4r	p	4a	1. Were	2. Were	1. Könnt'	2. Wär'	.
.	4f# 4c 4A	.	4g#	I	I	ich	ich	>
.	4f# 4c 4A	.	4f#	the	a	als	ein	]
!!LO:LB:g=original
=10	=10	=10	=10	=10	=10	=10	=10	=10
2.E 2.EE	4r	.	2f#	sun,	bird,	Son-	Vög-	>
.	4e 4c#X 4A	.	.	.	.	.	.	.
.	4e 4c# 4A	.	4e	in	sweet	-ne	-lein,	]
=11	=11	=11	=11	=11	=11	=11	=11	=11
2.E 2.EE	4r	.	8e	heav'n	ca-	hoch	herr-	.
!	!	!	!LO:TX:t=P:problem:cres nad nutą	!	!	!	!	!LO:HP:a
.	.	.	8dd	up	-rols	am	-lich	<
.	4g# 4e 4d	<	4dd	yon-	I'd	Him-	wollt'	.
.	4g# 4e 4d	.	4dd	-der	be	-mel	ich	.
=12	=12	=12	=12	=12	=12	=12	=12	=12
2.A 2.AA/	4r	.	4cc#	float-	sing-	schwe-	sin-	.
.	4a 4e 4c#	.	4ee	-ting,	-ing,	-ben,	-gen,	.
.	4a 4e 4c#	.	4r	.	.	.	.	.
=13	=13	=13	=13	=13	=13	=13	=13	=13
!	!	!	!	!	!	!	!	!LO:DY:rj
2.D# 2.DD#	4r	p	(>4a	To	So	nur	dass	p
.	4f# 4c 4A	.	4g#)	thee	might	.	dir	.
.	4f# 4c 4A	.	4f#	a-	I	für	mein	.
=14	=14	=14	=14	=14	=14	=14	=14	=14
2.E 2.EE	4r	.	(<4f#	-lone	rap-	dich	Lied-	.
!	!	!	!LO:TX:a:t=P:w źródle 4 kropeczki po alone:problem	!	!	!	!	!
.	4e 4c#X 4A	.	4e)	....	.	wollt'	-chen	.
.	4e 4c# 4A	.	4e	my	-ture	ich	sollt'	.
!!LO:LB:g=original
=15	=15	=15	=15	=15	=15	=15	=15	=15
2.E 2.EE	4r	.	8e	ray's	to	mai-	in	.
.	.	.	8dd	I'd	thy	-ne	die	.
.	4g# 4e 4d	.	4f#	be	soul	Strah-	See-	.
.	4g# 4e 4d	.	4g#	de-	be	-len	-le	.
=16	=16	=16	=16	=16	=16	=16	=16	=16
2A 2AA/	4r	.	4b/	-vot-	bring-	ge-	drin-	>
.	4a 4e 4c#	.	4a	-ing;	-ing;	-ben;	-gen,	.
.	.	.	.	.	.	.	.	]
!	!LO:TX:b:Bi:t=marcato	!	!	!	!	!	!	!
4BB^</	4r	.	4r	.	.	.	.	.
=17	=17	=17	=17	=17	=17	=17	=17	=17
2.C#	4r	.	4.g#	Not	Not	nicht	säng'	>
.	4e# 4c# 4G#	.	.	.	.	.	.	.
.	.	.	8e#	to	on	für	nicht	.
.	4e# 4c# 4G#	.	4c#	the	the	die	in	]
=18	=18	=18	=18	=18	=18	=18	=18	=18
2.F# 2.FF#	4r	.	(<4.f#	moun-	moun-	Wäl-	Wäl-	<
.	4f# 4c# 4A	.	.	.	.	.	.	.
.	.	.	8g#)	.	.	.	.	.
.	4f# 4c# 4A	.	4a	-tain,	-tain,	-der,	-dern,	[
=19	=19	=19	=19	=19	=19	=19	=19	=19
2.C# 2.CC#	4r	.	4.g#	not	not	nicht	nicht	.
.	4e# 4c# 4G#	.	.	.	.	.	.	.
.	.	.	8e#	to	by	für	in	.
.	4e# 4c# 4G#	.	4c#	the	the	die	den	.
!!LO:PB:g=original
=20	=20	=20	=20	=20	=20	=20	=20	=20
2.F# 2.FF#	4r	.	(<4.f#	foun-	foun-	Fel-	Fel-	<
.	4f# 4c# 4A	.	.	.	.	.	.	.
.	.	.	8g#)	.	.	.	.	.
.	4f# 4c# 4A	.	4a	-tain,	-tain,	-der,	-dern,	[
=21	=21	=21	=21	=21	=21	=21	=21	=21
*	*	*	*	*	*	*	*	*
!	!	!LO:DY:rj	!	!	!	!	!	!
!LO:N:vis=2.	!LO:N:vis=2.	!	!	!	!	!	!	!
1BB/ 1BBB/;<	1f#/;> 1d#X/ 1B/ 1A/	sf	4a	But	But	dort	dort	.
*	*	*	*cue	*	*	*	*	*
!	!	!	!LO:TX:a:t=P:slashed cue notes:problem	!	!	!	!	!
.	.	.	16a	to	at	wo	wo	.
.	.	.	16a	the	thy	dein	dein	.
.	.	.	16g#	ti-	ti-	klei-	klei-	<
!	!	!	!	!	!	!	!	!LO:DY:a
.	.	.	16a	-ny	-ny	-nes	-nes	.
*	*	*	*Xcue	*	*	*	*	*
.	.	.	4.cc#;>	win-	win-	Fen-	Fen-	[
.	.	.	.	.	.	.	.	>
.	.	.	.	.	.	.	.	.
.	.	.	8b	-dow,	-dow,	-ster:	-ster:	]]
=22	=22	=22	=22	=22	=22	=22	=22	=22
2.BB 2.BBB	4r	p	4a	Where	There,	dort	wär'	.
.	4f# 4d# 4A	.	4g#	thou	on-	hin-	ich	.
.	4f# 4d# 4A	.	4f#	dost	-ly	-ein	ein	.
=23	=23	=23	=23	=23	=23	=23	=23	=23
2.E 2.EE	4r	.	2f#	dwell,	there,	würd'	Vög-	.
.	4f#^> 4dn 4G#	.	.	.	.	.	.	.
.	4e 4d 4G#	.	4e	my	sweet	ich	-lein,	.
!!LO:LB:g=original
=24	=24	=24	=24	=24	=24	=24	=24	=24
2.E	4r	.	8e	rays	ca-	mei-	dort	.
!	!	!	!	!	!	!	!	!
!	!	!	!LO:TX:t=P:problem:cres nad nutą	!	!	!	!	!LO:HP:a
.	.	<	8dd	I'd	-rols	-ne	nur	<
.	4g# 4e 4d	.	4dd	be	I'd	Strah-	wollt'	.
.	4g# 4e 4d	.	4dd	de-	be	-len	ich	.
=25	=25	=25	=25	=25	=25	=25	=25	=25
2.A 2.AA	4r	.	2cc#	-vot-	sing-	ge-	sin-	.
.	4a 4e 4c#	.	.	.	.	.	.	.
.	4a 4e 4c#	.	4ee	-ing,	-ing,	-ben,	-gen,	.
=26	=26	=26	=26	=26	=26	=26	=26	=26
!	!	!	!	!	!	!	!	!LO:DY:rj
2.D#	4r	p	4a	Were	So	könnt'	dir	p
.	4f# 4c 4A	.	4g#	I	might	ich	sollt'	.
.	4f# 4c 4A	.	4f#	the	I	als	mein	.
=27	=27	=27	=27	=27	=27	=27	=27	=27
2.E	4r	.	2f#	sun,	rap-	Son-	Lied-	.
.	4e 4c#X 4A	.	.	.	.	.	.	.
.	4e 4c# 4A	.	4e	in	-ture	-ne	-chen	.
=28	=28	=28	=28	=28	=28	=28	=28	=28
2.E	4r	.	8e	heav'n	to	hoch	in	.
.	.	.	8dd	up	thy	am	die	.
.	4g# 4e 4d	.	4f#	yon-	soul	Him-	See-	.
.	4g# 4e 4d	.	4g#	-der	be	-mel	-le	.
!!LO:LB:g=original
=29	=29	=29	=29	=29	=29	=29	=29	=29
2A 2AA\	4r	.	4b/	float-	bring-	schwe-	drin-	.
.	4a 4e 4c#	.	4a	-ing.	-ing.	-ben.	-gen.	.
!	!	!LO:DY:rj	!	!	!	!	!	!
4r	(>8eeL	mf	4r	.	.	.	.	.
.	8gg#J)	.	.	.	.	.	.	.
*	*	*	*	*	*	*v	*v	*
*	*	*	*	*	*v	*v	*
*	*	*	*	*v	*v	*
=30	=30	=30	=30	=30	=30
*^	*	*	*	*	*
4rB	2.AA	4ff#T>	.	2.r	.	.
4d 4E	.	(>8eeL	.	.	.	.
.	.	8b	.	.	.	.
4d 4E	.	8ee	.	.	.	.
.	.	8gg#J)	.	.	.	.
=31	=31	=31	=31	=31	=31	=31
4rB	2.AA	4ff#T>	.	2.r	.	.
4c# 4E	.	(>8eeL	.	.	.	.
.	.	8a	.	.	.	.
4c# 4E	.	8ee	.	.	.	.
.	.	8gg#J)	.	.	.	.
=32	=32	=32	=32	=32	=32	=32
4rB	2.AA	4ff#T>	.	2.r	.	.
4d 4E	.	(>8eeL	.	.	.	.
.	.	8bJ)	.	.	.	.
4d 4E	.	(<8cc#L	.	.	.	.
.	.	8eJ)	.	.	.	.
!!LO:LB:g=original
=33	=33	=33	=33	=33	=33	=33
4rB	2.AA	2a	.	2.r	.	.
4c# 4E	.	.	.	.	.	.
4c# 4E	.	(>8eeL	.	.	.	.
.	.	8gg#J)	.	.	.	.
=34	=34	=34	=34	=34	=34	=34
4rB	2.AA	4ff#T>	.	2.r	.	.
4d 4E	.	(>8eeL	.	.	.	.
.	.	8b	.	.	.	.
4d 4E	.	8ee	.	.	.	.
.	.	8gg#J)	.	.	.	.
=35	=35	=35	=35	=35	=35	=35
4rB	2.AA	4ff#T>	.	2.r	.	.
4c# 4E	.	(>8eeL	.	.	.	.
.	.	8a	.	.	.	.
4c# 4E	.	8ee	.	.	.	.
.	.	8gg#J)	.	.	.	.
=36	=36	=36	=36	=36	=36	=36
4rB	2.AA	4ff#T>	.	2.r	.	.
4d 4E	.	(>8eeL	.	.	.	.
.	.	8bJ)	.	.	.	.
4d 4E	.	(<8cc#L	.	.	.	.
.	.	8eJ)	.	.	.	.
=37	=37	=37	=37	=37	=37	=37
4rB	2AA	2a	.	2.r	.	.
4c# 4E	.	.	.	.	.	.
4r	4r	4r	.	.	.	.
*v	*v	*	*	*	*	*
==:|!	==:|!	==:|!	==:|!	==:|!	==:|!
*-	*-	*-	*-	*-	*-
!!title: @{OTL}; @{OPS} @{ONM} publisher: @{PPR}
!!!RDF**kern: > = above
!!!RDF**kern: < = below
!!!RDF**kern: N = linked
!!!RDF**dynam: < = "cres:" fontstyle="bold-italic"
!!!RDF**dynam: > = "dim:" fontstyle="bold-italic"
!!!ENC: Wojciech Jakubiak-Danek
!!!END: 2020-01-29
!!!EED: Mateusz Mrugas
!!!EST: revision finished 2020-02-03
!!!rism-genre: The Maiden's Wish
!!!rism-key: A major
!!!rism-opus: Op. 74, No. 1
!!!rism-title: The Maiden's Wish in A major Op. 74 No. 1
